packages/bezier-icons/icons/twitter.svg

<svg width="24" height="24" viewBox="0 0 24 24" fill="none" xmlns="http://www.w3.org/2000/svg">
<path d="M2.04923 3.01098C2.04103 3.02277 2.70563 3.89099 3.52202 4.93599C4.33841 5.981 6.07376 8.20458 7.37835 9.87423L9.74959 12.911L9.59779 13.076C9.51164 13.1664 7.76809 14.9696 5.72505 17.0832C3.68202 19.2007 2.0041 20.945 2 20.9646C1.9918 20.9843 2.34871 21 2.86152 20.9961L3.73535 20.9921L4.02252 20.6896C4.18252 20.5246 5.66762 18.9885 7.32502 17.2718C8.98242 15.555 10.3855 14.1014 10.4429 14.0385L10.5455 13.9246L11.366 14.9775C11.8172 15.555 13.0603 17.15 14.1269 18.5171L16.0715 21H19.0458C21.5196 21 22.016 20.9921 21.9996 20.9489C21.9873 20.9175 21.2324 19.9432 20.3217 18.7764C19.4109 17.6135 18.3689 16.2778 18.0079 15.8142C17.6428 15.3507 16.572 13.9717 15.6202 12.7578C14.6685 11.5399 13.889 10.5264 13.889 10.5107C13.889 10.4832 18.9186 5.25421 20.6294 3.50599L21.1176 3.00706H20.2191L19.3248 3.01098L18.2786 4.09527C17.7043 4.69242 16.2971 6.15385 15.1485 7.33636L13.0685 9.48922L10.5455 6.25993L8.01834 3.0267L5.04404 3.00706C3.40715 2.99527 2.05744 2.9992 2.04923 3.01098ZM9.09729 6.49171C10.0696 7.741 11.5711 9.66208 12.4326 10.766C13.2941 11.866 15.2059 14.3175 16.6828 16.2071C18.1597 18.1007 19.3822 19.6682 19.4027 19.6957C19.4273 19.731 19.1361 19.7428 18.0735 19.7428H16.7156L14.0244 16.2935C7.81322 8.346 4.67892 4.33099 4.642 4.27206C4.61738 4.2367 4.89635 4.22492 5.9671 4.22492H7.32502L9.09729 6.49171Z" fill="#313234"/>
</svg>

<svg xmlns="http://www.w3.org/2000/svg" width="24" height="24" fill="none" viewBox="0 0 24 24"><path fill="#313234" d="M2.05 3.011c-.009.012.656.88 1.472 1.925l3.856 4.938 2.372 3.037-.152.165-3.873 4.007C3.682 19.201 2.005 20.945 2 20.965c-.008.02.349.035.862.031l.873-.004.288-.302a4740 4740 0 0 0 6.42-6.651l.103-.114.82 1.052 2.76 3.54L16.073 21h2.974c2.474 0 2.97-.008 2.954-.051-.013-.032-.768-1.006-1.678-2.173-.911-1.163-1.953-2.498-2.314-2.962-.365-.463-1.436-1.842-2.388-3.056-.951-1.218-1.731-2.232-1.731-2.247 0-.028 5.03-5.257 6.74-7.005l.489-.499h-.899l-.894.004-1.046 1.084c-.575.597-1.982 2.059-3.13 3.241l-2.08 2.153-2.524-3.23-2.527-3.232-2.974-.02C3.407 2.995 2.057 3 2.049 3.011m7.047 3.48c.973 1.25 2.474 3.171 3.336 4.275.861 1.1 2.773 3.552 4.25 5.441 1.477 1.894 2.7 3.461 2.72 3.489.024.035-.267.047-1.33.047h-1.357l-2.692-3.45C7.814 8.347 4.68 4.332 4.642 4.274c-.025-.036.254-.048 1.325-.048h1.358z"/></svg>
